X: 6536
T: Catfish, The
R: jig
M: 6/8
K: Gmajor
f|gdB GBd|cBc EAG|FAF DFA|GBe d2f|
gdB GBd|cBc EAG|FAF DEF|1 G3G2:|2 G3 gdB||
GBd gdB|cBc a2g|gaf def|gfe d^c=c|
B2d gdB|cBc a2g|gaf def|1 g3 gdB:|2 g3 g2f||

